flaticon/symbols/affluence.svg

<svg xmlns="http://www.w3.org/2000/svg" width="32" height="32" viewBox="0 0 24 24">
    <path d="M 19.492188 11.554688 C 21.976562 11.554688 24 9.53125 24 7.046875 L 24 0.445312 L 17.398438 0.445312 C 14.910156 0.445312 12.890625 2.46875 12.890625 4.953125 L 12.890625 9.011719 C 12.375 9.382812 11.667969 9.417969 11.109375 9.121094 L 11.109375 4.953125 C 11.109375 2.46875 9.089844 0.445312 6.601562 0.445312 L 0 0.445312 L 0 7.046875 C 0 9.53125 2.023438 11.554688 4.507812 11.554688 L 9.300781 11.554688 C 9.324219 11.671875 9.339844 11.789062 9.339844 11.914062 C 9.339844 12.097656 9.304688 12.273438 9.246094 12.445312 L 4.507812 12.445312 C 2.023438 12.445312 0 14.46875 0 16.953125 L 0 23.554688 L 6.601562 23.554688 C 9.089844 23.554688 11.109375 21.53125 11.109375 19.046875 L 11.109375 14.707031 C 11.664062 14.410156 12.371094 14.441406 12.890625 14.8125 L 12.890625 19.046875 C 12.890625 21.53125 14.910156 23.554688 17.398438 23.554688 L 24 23.554688 L 24 16.953125 C 24 14.46875 21.976562 12.445312 19.492188 12.445312 L 14.667969 12.445312 C 14.636719 12.445312 14.613281 12.457031 14.585938 12.460938 C 14.523438 12.285156 14.484375 12.101562 14.484375 11.914062 C 14.484375 11.792969 14.5 11.671875 14.527344 11.554688 Z M 13.777344 4.953125 C 13.777344 2.957031 15.402344 1.332031 17.398438 1.332031 L 23.109375 1.332031 L 23.109375 7.046875 C 23.109375 9.042969 21.488281 10.667969 19.492188 10.667969 L 15.042969 10.667969 L 18.871094 6.753906 C 19.347656 6.277344 19.421875 5.523438 19.046875 5.003906 C 18.816406 4.683594 18.460938 4.480469 18.070312 4.449219 C 17.675781 4.417969 17.296875 4.558594 17.015625 4.839844 L 13.777344 8.148438 Z M 4.507812 10.667969 C 2.511719 10.667969 0.890625 9.042969 0.890625 7.046875 L 0.890625 1.332031 L 6.601562 1.332031 C 8.597656 1.332031 10.222656 2.957031 10.222656 4.953125 L 10.222656 8.339844 L 6.980469 5.128906 C 6.503906 4.652344 5.753906 4.574219 5.230469 4.953125 C 4.910156 5.183594 4.707031 5.539062 4.675781 5.929688 C 4.644531 6.320312 4.785156 6.703125 5.0625 6.980469 L 8.78125 10.667969 Z M 10.222656 19.046875 C 10.222656 21.042969 8.597656 22.667969 6.601562 22.667969 L 0.890625 22.667969 L 0.890625 16.953125 C 0.890625 14.957031 2.511719 13.332031 4.507812 13.332031 L 8.605469 13.332031 L 5.128906 16.800781 C 4.652344 17.277344 4.578125 18.03125 4.953125 18.550781 C 5.183594 18.875 5.539062 19.074219 5.929688 19.105469 C 6.320312 19.136719 6.703125 18.996094 6.980469 18.722656 L 10.222656 15.488281 Z M 19.492188 13.332031 C 21.488281 13.332031 23.109375 14.957031 23.109375 16.953125 L 23.109375 22.667969 L 17.398438 22.667969 C 15.402344 22.667969 13.777344 21.042969 13.777344 19.046875 L 13.777344 15.65625 L 17.019531 18.871094 C 17.292969 19.144531 17.65625 19.285156 18.015625 19.285156 C 18.28125 19.285156 18.546875 19.207031 18.769531 19.046875 C 19.089844 18.816406 19.292969 18.460938 19.324219 18.070312 C 19.355469 17.679688 19.214844 17.296875 18.9375 17.019531 L 15.222656 13.332031 Z M 14.34375 13.714844 L 18.308594 17.648438 C 18.402344 17.738281 18.449219 17.867188 18.4375 18 C 18.429688 18.128906 18.359375 18.246094 18.25 18.328125 C 18.082031 18.449219 17.816406 18.410156 17.644531 18.242188 L 13.710938 14.34375 C 13.230469 13.859375 12.59375 13.597656 11.910156 13.597656 C 11.230469 13.597656 10.59375 13.863281 10.113281 14.339844 L 6.351562 18.09375 C 6.257812 18.183594 6.128906 18.234375 6 18.222656 C 5.871094 18.210938 5.753906 18.144531 5.671875 18.03125 C 5.550781 17.863281 5.589844 17.597656 5.757812 17.429688 L 9.484375 13.714844 C 9.964844 13.234375 10.230469 12.59375 10.230469 11.914062 C 10.230469 11.234375 9.964844 10.59375 9.480469 10.109375 L 5.691406 6.351562 C 5.597656 6.261719 5.550781 6.132812 5.5625 6.003906 C 5.570312 5.871094 5.636719 5.753906 5.75 5.671875 C 5.917969 5.550781 6.183594 5.589844 6.351562 5.757812 L 10.113281 9.484375 C 10.59375 9.964844 11.230469 10.230469 11.910156 10.230469 C 12.5625 10.230469 13.171875 9.980469 13.644531 9.539062 C 13.648438 9.539062 13.648438 9.535156 13.648438 9.535156 C 13.667969 9.515625 13.695312 9.5 13.714844 9.480469 L 17.648438 5.464844 C 17.738281 5.371094 17.871094 5.324219 17.996094 5.335938 C 18.128906 5.34375 18.246094 5.410156 18.328125 5.523438 C 18.449219 5.691406 18.410156 5.957031 18.238281 6.128906 L 14.339844 10.113281 C 13.859375 10.59375 13.59375 11.234375 13.59375 11.914062 C 13.597656 12.59375 13.859375 13.234375 14.34375 13.714844 Z M 14.34375 13.714844"/>
</svg>

<svg xmlns="http://www.w3.org/2000/svg" width="32" height="32" viewBox="0 0 24 24">
    <path d="M19.492 11.555A4.515 4.515 0 0 0 24 7.047V.445h-6.602a4.512 4.512 0 0 0-4.507 4.508v4.059a1.712 1.712 0 0 1-1.782.11V4.952A4.512 4.512 0 0 0 6.602.445H0v6.602a4.515 4.515 0 0 0 4.508 4.508H9.3c.023.117.039.234.039.36 0 .183-.035.358-.094.53H4.508A4.515 4.515 0 0 0 0 16.953v6.602h6.602a4.512 4.512 0 0 0 4.507-4.508v-4.34a1.712 1.712 0 0 1 1.782.105v4.235a4.512 4.512 0 0 0 4.507 4.508H24v-6.602a4.515 4.515 0 0 0-4.508-4.508h-4.824c-.031 0-.055.012-.082.016a1.634 1.634 0 0 1-.102-.547c0-.121.016-.242.043-.36zm-5.715-6.602a3.626 3.626 0 0 1 3.621-3.621h5.711v5.715a3.623 3.623 0 0 1-3.617 3.621h-4.449l3.828-3.914c.477-.477.55-1.23.176-1.75a1.334 1.334 0 0 0-2.031-.164l-3.239 3.308zm-9.27 5.715A3.623 3.623 0 0 1 .892 7.047V1.332H6.6a3.626 3.626 0 0 1 3.622 3.621V8.34L6.98 5.129c-.476-.477-1.226-.555-1.75-.176a1.334 1.334 0 0 0-.168 2.027l3.72 3.688zm5.716 8.379a3.626 3.626 0 0 1-3.621 3.621H.89v-5.715a3.623 3.623 0 0 1 3.617-3.621h4.097L5.13 16.801c-.477.476-.55 1.23-.176 1.75.23.324.586.523.977.554.39.032.773-.109 1.05-.382l3.243-3.235zm9.27-5.715a3.623 3.623 0 0 1 3.616 3.621v5.715H17.4a3.626 3.626 0 0 1-3.622-3.621v-3.39l3.243 3.214c.273.274.636.414.996.414.265 0 .53-.078.754-.238a1.334 1.334 0 0 0 .168-2.027l-3.715-3.688zm-5.15.383l3.966 3.933a.448.448 0 0 1-.059.68c-.168.121-.434.082-.605-.086l-3.934-3.898a2.51 2.51 0 0 0-1.8-.746c-.68 0-1.317.265-1.798.742l-3.761 3.754a.455.455 0 0 1-.352.129.453.453 0 0 1-.328-.192c-.121-.168-.082-.433.086-.601l3.726-3.715c.48-.48.746-1.121.746-1.8 0-.68-.265-1.321-.75-1.806L5.691 6.352a.429.429 0 0 1-.128-.348.437.437 0 0 1 .187-.332c.168-.121.434-.082.602.086l3.761 3.726a2.528 2.528 0 0 0 3.531.055c.004 0 .004-.004.004-.004.02-.02.047-.035.067-.055l3.933-4.015a.433.433 0 0 1 .348-.13c.133.009.25.075.332.188.121.168.082.434-.09.606l-3.898 3.984a2.532 2.532 0 0 0-.746 1.801c.004.68.265 1.32.75 1.8zm0 0"/>
</svg>
